X: 17404
T: High, The
R: reel
M: 4/4
K: Amixolydian
|:a2 fa ec A2|cAeA fAeA|a2 fa ec A2|Bcdc BG G2|
a2 fa ec A2|cdef g2 fg|afge fdec|Bcdc BG G2:|
|:cAeA fAeA|cAaf ec A2|cAeA fAeA|Bcdc BG G2|
cAeA fAeA|cdef g2 fg|afge fdec|Bcdc BG G2:|

